symbolic/24x24/mimetypes/text-x-go.svg

<svg xmlns="http://www.w3.org/2000/svg" width="24" height="24"><path style="opacity:.2" d="M5 2.5c-.554 0-1 .446-1 1v18c0 .554.446 1 1 1h14c.554 0 1-.446 1-1v-13L14.5 8 14 2.5z"/><path style="fill:#1e88e5" d="M5 2c-.554 0-1 .446-1 1v18c0 .554.446 1 1 1h14c.554 0 1-.446 1-1V8l-5.5-.5L14 2z"/><path style="opacity:.2;fill:#fff" d="M5 2c-.554 0-1 .446-1 1v.5c0-.554.446-1 1-1h9V2z"/><path style="opacity:.2" d="M14 2.5v5a1 1 0 0 0 1 1h5z"/><path style="fill:#64b5f6" d="M14 2v5a1 1 0 0 0 1 1h5z"/><path style="opacity:.2" d="M9 10.5a2 2 0 0 0-2 2 2 2 0 0 0 2 2 2 2 0 0 0 2-2 2 2 0 0 0-2-2zm6 0a2 2 0 0 0-2 2 2 2 0 0 0 2 2 2 2 0 0 0 2-2 2 2 0 0 0-2-2zm-6.5 1.75a.75.75 0 0 1 .75.75.75.75 0 0 1-.75.75.75.75 0 0 1-.75-.75.75.75 0 0 1 .75-.75zm6 0a.75.75 0 0 1 .75.75.75.75 0 0 1-.75.75.75.75 0 0 1-.75-.75.75.75 0 0 1 .75-.75zm-2.523 2.25a1 1 0 0 0-.477.135 1 1 0 0 0-.5.865h2a1 1 0 0 0-.5-.865 1 1 0 0 0-.523-.135zm1.023 1a1 1 0 0 1-2 0h-1c-.554 0-1 .446-1 1s.446 1 1 1h1V19c0 .277.218.5.49.5h.02c.272 0 .49-.223.49-.5a.499.499 0 1 0 1 0v-1.5h1c.554 0 1-.446 1-1s-.446-1-1-1z"/><path style="fill:#fefefe" d="M9 10a2 2 0 0 0-2 2 2 2 0 0 0 2 2 2 2 0 0 0 2-2 2 2 0 0 0-2-2zm6 0a2 2 0 0 0-2 2 2 2 0 0 0 2 2 2 2 0 0 0 2-2 2 2 0 0 0-2-2zm-6.5 1.75a.75.75 0 0 1 .75.75.75.75 0 0 1-.75.75.75.75 0 0 1-.75-.75.75.75 0 0 1 .75-.75zm6 0a.75.75 0 0 1 .75.75.75.75 0 0 1-.75.75.75.75 0 0 1-.75-.75.75.75 0 0 1 .75-.75zM11.977 14a1 1 0 0 0-.477.135A1 1 0 0 0 11 15h2a1 1 0 0 0-.5-.865 1 1 0 0 0-.523-.135zM13 15a1 1 0 0 1-2 0h-1c-.554 0-1 .446-1 1s.446 1 1 1h1v1.5c0 .277.218.5.49.5h.02c.272 0 .49-.223.49-.5a.499.499 0 1 0 1 0V17h1c.554 0 1-.446 1-1s-.446-1-1-1h-1z"/></svg>

<svg xmlns="http://www.w3.org/2000/svg" width="24" height="24" version="1.1">
 <path style="opacity:0.2" d="m 5,2.5 c -0.554,0 -1,0.446 -1,1 v 18 c 0,0.554 0.446,1 1,1 h 14 c 0.554,0 1,-0.446 1,-1 V 8.5 L 14.5,8 14,2.5 Z"/>
 <path style="fill:#1e88e5" d="M 5,2 C 4.446,2 4,2.446 4,3 V 21 C 4,21.554 4.446,22 5,22 H 19 C 19.554,22 20,21.554 20,21 V 8 L 14.5,7.5 14,2 Z"/>
 <path style="opacity:0.2;fill:#ffffff" d="M 5,2 C 4.446,2 4,2.446 4,3 V 3.5 C 4,2.946 4.446,2.5 5,2.5 H 14 V 2 Z"/>
 <path style="opacity:0.2" d="m 14,2.5 v 5 c 0,0.5525 0.448,1 1,1 h 5 z"/>
 <path style="fill:#64b5f6" d="M 14,2 V 7 C 14,7.5525 14.448,8 15,8 H 20 Z"/>
 <path style="opacity:0.2" d="m 9,10.5 a 2,2 0 0 0 -2,2 2,2 0 0 0 2,2 2,2 0 0 0 2,-2 2,2 0 0 0 -2,-2 z m 6,0 a 2,2 0 0 0 -2,2 2,2 0 0 0 2,2 2,2 0 0 0 2,-2 2,2 0 0 0 -2,-2 z M 8.5,12.25 A 0.75,0.75 0 0 1 9.25,13 0.75,0.75 0 0 1 8.5,13.75 0.75,0.75 0 0 1 7.75,13 0.75,0.75 0 0 1 8.5,12.25 Z m 6,0 A 0.75,0.75 0 0 1 15.25,13 0.75,0.75 0 0 1 14.5,13.75 0.75,0.75 0 0 1 13.75,13 0.75,0.75 0 0 1 14.5,12.25 Z M 11.976562,14.5 A 1,1 0 0 0 11.5,14.634766 1,1 0 0 0 11,15.5 h 2 A 1,1 0 0 0 12.5,14.634766 1,1 0 0 0 11.976562,14.5 Z M 13,15.5 c 0,0.552 -0.448,1 -1,1 -0.552,0 -1,-0.448 -1,-1 h -1 c -0.554,0 -1,0.446 -1,1 0,0.554 0.446,1 1,1 h 1 V 19 c 0,0.277 0.21822,0.5 0.490234,0.5 h 0.01953 C 11.78178,19.5 12,19.277 12,19 c 0,0.277 0.223,0.5 0.5,0.5 0.277,0 0.5,-0.223 0.5,-0.5 v -1.5 h 1 c 0.554,0 1,-0.446 1,-1 0,-0.554 -0.446,-1 -1,-1 z"/>
 <path style="fill:#fefefe" d="M 9 10 A 2 2 0 0 0 7 12 A 2 2 0 0 0 9 14 A 2 2 0 0 0 11 12 A 2 2 0 0 0 9 10 z M 15 10 A 2 2 0 0 0 13 12 A 2 2 0 0 0 15 14 A 2 2 0 0 0 17 12 A 2 2 0 0 0 15 10 z M 8.5 11.75 A 0.75 0.75 0 0 1 9.25 12.5 A 0.75 0.75 0 0 1 8.5 13.25 A 0.75 0.75 0 0 1 7.75 12.5 A 0.75 0.75 0 0 1 8.5 11.75 z M 14.5 11.75 A 0.75 0.75 0 0 1 15.25 12.5 A 0.75 0.75 0 0 1 14.5 13.25 A 0.75 0.75 0 0 1 13.75 12.5 A 0.75 0.75 0 0 1 14.5 11.75 z M 11.976562 14 A 1 1 0 0 0 11.5 14.134766 A 1 1 0 0 0 11 15 L 13 15 A 1 1 0 0 0 12.5 14.134766 A 1 1 0 0 0 11.976562 14 z M 13 15 C 13 15.552 12.552 16 12 16 C 11.448 16 11 15.552 11 15 L 10 15 C 9.446 15 9 15.446 9 16 C 9 16.554 9.446 17 10 17 L 11 17 L 11 18.5 C 11 18.777 11.21822 19 11.490234 19 L 11.509766 19 C 11.78178 19 12 18.777 12 18.5 C 12 18.777 12.223 19 12.5 19 C 12.777 19 13 18.777 13 18.5 L 13 17 L 14 17 C 14.554 17 15 16.554 15 16 C 15 15.446 14.554 15 14 15 L 13 15 z"/>
</svg>
